X: 21215
T: Les SOUVENIRS QUADRILLES No. 4. La Trenise.
P: Le soupir de l'absence.
%R: reel
B: W. Hamilton "Universal Tune-Book" Vol. 2 Glasgow 1846 p.121 #2
S: http://s3-eu-west-1.amazonaws.com/itma.dl.printmaterial/book_pdfs/hamiltonvol2web.pdf
Z: 2016 John Chambers <jc:trillian.mit.edu>
M: 2/4
L: 1/16
K: G
% - - - - - - - - - - - - - - - - - - - - - - - - -
[|\
D2GA B2A2 | G2Bc d2^d2 | edcB ADEF | G2g2 d2BG |\
D2GA B2A2 | G2Bc d2^d2 | edcB A2B2 | G2z2 g2z2 |]
"^>"e4 egfe | d2Bc d4 | c2AB c4 | B2GA Bcd^d |\
"^>"e4 egfe | d2Bc d2ed | ^cdef gABc d2f2d2 "^D.C."z2 |]
A2f2e2d2 | e2A2e4 | c2b2a2g2 | (3(gag) (3(efe) d4 |\
A2f2e2d2 | e2g2b4 | a2gf e2f2 | d6 "^D.C."z2 |]
% - - - - - - - - - - - - - - - - - - - - - - - - -

%%sep 1 1 500
%%sep 1 1 500

